X: 2
T: Scarce O' Tatties
C: Norman Maclean
R: Jig
M: 6/8
L: 1/8
K: Amix
|: A2e efg | edB dBG | A2e efg | edB A3 |
~a3 gag | fgf eAA | Aee efg | edB A3 :||
aeg a2 e | g2f eAA | aeg a2 e | g2f e3 |
e2e ~A3 | def fee | Aee efg | edB A3 :||
